rospo-dark/16x16/actions/object-flip-horizontal.svg

<svg height="16" viewBox="0 0 16 16" width="16" xmlns="http://www.w3.org/2000/svg"><path d="m5 5.0039062-5 3 5 2.9999998v-1.9999998h6v1.9999998l5-2.9999998-5-3v2h-6z" fill="#d3dae3"/></svg>

<?xml version="1.0" encoding="UTF-8" standalone="no"?>
<svg xmlns="http://www.w3.org/2000/svg" width="22" height="22" viewBox="0 0 22 22">
 <defs>
  <style type="text/css" id="current-color-scheme">
   .ColorScheme-Text { color:#d3dae3; } .ColorScheme-Highlight { color:#5294e2; }
  </style>
 </defs>
 <path style="fill:currentColor;opacity:1" class="ColorScheme-Text" transform="translate(3 3)" d="M 5 5.0039062 L 0 8.0039062 L 5 11.003906 L 5 9.0039062 L 11 9.0039062 L 11 11.003906 L 16 8.0039062 L 11 5.0039062 L 11 7.0039062 L 5 7.0039062 L 5 5.0039062 z"/>
</svg>
